X: 172
T: Three Meet
M:6/8
L:1/8
Q:160
S:Playford
O:Manuscript
A:English
K:D
A|F2 A d2 A|B2 B e2 d|d2 d cBc|d2 d f2 A|F2 A d2 A|B2 B e2 d|d2 d cBc|d3 d3:|
|: f2 a e2 a|fed cBA| d2 d ede|fAf e3|b3 a3|g3 f3|ede fed|B2 c d3:|

